src/images/GeneFit/Survey2.svg

<svg width="358" height="302" viewBox="0 0 358 302" fill="none" xmlns="http://www.w3.org/2000/svg">
<path d="M292.909 264H294.373V252.36L290.053 253.944L290.125 255.312L292.909 254.256V264ZM307.866 258.384C307.866 260.52 307.146 262.512 305.73 264.312C304.29 266.136 302.226 267.36 299.514 267.984L299.082 266.592C303.042 265.656 305.562 263.256 306.258 260.112L306.21 260.088C305.01 261.216 303.666 261.768 302.178 261.768C300.978 261.768 299.946 261.36 299.106 260.568C298.266 259.776 297.834 258.672 297.834 257.304C297.834 254.4 299.778 252.36 302.778 252.36C304.338 252.36 305.586 252.936 306.498 254.064C307.41 255.216 307.866 256.656 307.866 258.384ZM306.306 258.072C306.306 255.6 304.914 253.728 302.706 253.728C300.642 253.728 299.346 255.144 299.346 257.232C299.346 259.2 300.666 260.448 302.466 260.448C303.882 260.448 305.13 259.92 306.234 258.864C306.282 258.624 306.306 258.36 306.306 258.072ZM315.16 258.864V257.472H309.736V258.864H315.16ZM325.531 264H316.939V262.632C319.459 260.736 321.019 259.512 321.595 258.984C322.819 257.88 323.419 256.896 323.419 256.008C323.419 254.688 322.435 253.752 320.899 253.752C319.819 253.752 318.691 254.208 317.491 255.144L316.963 253.872C318.235 252.864 319.603 252.36 321.043 252.36C323.395 252.36 324.979 253.752 324.979 255.816C324.979 256.104 324.955 256.368 324.907 256.632C324.835 256.896 324.739 257.184 324.595 257.448C324.451 257.712 324.307 257.952 324.187 258.168C324.043 258.384 323.827 258.648 323.539 258.912L322.867 259.608C322.699 259.776 322.411 260.016 322.027 260.328C321.619 260.64 321.331 260.88 321.115 261.024C320.899 261.192 320.563 261.432 320.107 261.792C319.627 262.152 319.267 262.416 319.051 262.584H325.531V264ZM328.901 259.008C329.501 258.84 330.173 258.768 330.917 258.768C333.941 258.768 335.909 260.616 335.909 263.328C335.909 264.816 335.405 266.04 334.421 267C333.413 267.96 332.165 268.44 330.677 268.44C329.261 268.44 327.965 268.104 326.837 267.456L327.125 265.992C328.373 266.688 329.573 267.024 330.725 267.024C332.885 267.024 334.397 265.584 334.397 263.4C334.397 261.504 332.981 260.064 330.773 260.064C329.789 260.064 328.829 260.208 327.917 260.52L327.413 260.04L328.373 252.648H335.501L335.573 254.088H329.597L328.901 259.008Z" fill="#FBFBFB"/>
<path d="M9.72 24H1.128V22.632C3.648 20.736 5.208 19.512 5.784 18.984C7.008 17.88 7.608 16.896 7.608 16.008C7.608 14.688 6.624 13.752 5.088 13.752C4.008 13.752 2.88 14.208 1.68 15.144L1.152 13.872C2.424 12.864 3.792 12.36 5.232 12.36C7.584 12.36 9.168 13.752 9.168 15.816C9.168 16.104 9.144 16.368 9.096 16.632C9.024 16.896 8.928 17.184 8.784 17.448C8.64 17.712 8.496 17.952 8.376 18.168C8.232 18.384 8.016 18.648 7.728 18.912L7.056 19.608C6.888 19.776 6.6 20.016 6.216 20.328C5.808 20.64 5.52 20.88 5.304 21.024C5.088 21.192 4.752 21.432 4.296 21.792C3.816 22.152 3.456 22.416 3.24 22.584H9.72V24ZM11.7435 18.288C11.7435 16.152 12.4635 14.16 13.9035 12.336C15.3435 10.536 17.4075 9.312 20.0955 8.688L20.5275 10.08C16.5675 11.016 14.0475 13.416 13.3515 16.56L13.3995 16.584C14.5995 15.456 15.9435 14.904 17.4315 14.904C18.6315 14.904 19.6635 15.312 20.5035 16.104C21.3435 16.896 21.7755 18 21.7755 19.368C21.7755 22.272 19.8075 24.312 16.8555 24.312C15.2715 24.312 14.0235 23.736 13.1115 22.584C12.1995 21.456 11.7435 20.016 11.7435 18.288ZM13.3035 18.6C13.3035 19.8 13.6395 20.832 14.2875 21.672C14.9355 22.512 15.7995 22.944 16.9035 22.944C18.9675 22.944 20.2635 21.528 20.2635 19.44C20.2635 17.472 18.9435 16.224 17.1435 16.224C15.7275 16.224 14.4795 16.752 13.3755 17.808C13.3275 18.048 13.3035 18.312 13.3035 18.6ZM28.9978 18.864V17.472H23.5738V18.864H28.9978ZM32.2856 19.008C32.8856 18.84 33.5576 18.768 34.3016 18.768C37.3256 18.768 39.2936 20.616 39.2936 23.328C39.2936 24.816 38.7896 26.04 37.8056 27C36.7976 27.96 35.5496 28.44 34.0616 28.44C32.6456 28.44 31.3496 28.104 30.2216 27.456L30.5096 25.992C31.7576 26.688 32.9576 27.024 34.1096 27.024C36.2696 27.024 37.7816 25.584 37.7816 23.4C37.7816 21.504 36.3656 20.064 34.1576 20.064C33.1736 20.064 32.2136 20.208 31.3016 20.52L30.7976 20.04L31.7576 12.648H38.8856L38.9576 14.088H32.9816L32.2856 19.008ZM46.7323 12.36C48.3883 12.36 49.7803 12.912 50.8843 14.04C51.9883 15.168 52.5403 16.584 52.5403 18.336C52.5403 20.088 51.9883 21.504 50.8843 22.632C49.7803 23.76 48.3883 24.312 46.7323 24.312C45.0763 24.312 43.7083 23.76 42.6283 22.632C41.5243 21.504 40.9723 20.088 40.9723 18.336C40.9723 16.584 41.5243 15.168 42.6283 14.04C43.7083 12.912 45.0763 12.36 46.7323 12.36ZM46.7323 22.896C48.0043 22.896 49.0363 22.464 49.8523 21.6C50.6443 20.736 51.0523 19.656 51.0523 18.336C51.0523 17.016 50.6443 15.936 49.8523 15.072C49.0363 14.208 48.0043 13.776 46.7323 13.776C45.4843 13.776 44.4523 14.208 43.6603 15.072C42.8683 15.936 42.4603 17.016 42.4603 18.336C42.4603 19.656 42.8683 20.736 43.6603 21.6C44.4523 22.464 45.4843 22.896 46.7323 22.896Z" fill="#FBFBFB"/>
<path d="M289.956 289.732C289.956 287.548 290.676 285.58 292.092 283.828C293.508 282.1 295.524 280.924 298.188 280.3L298.788 282.172C295.068 283.108 292.836 284.98 292.092 287.788L292.14 287.812C293.22 286.828 294.492 286.324 295.956 286.324C298.428 286.324 300.348 288.22 300.348 290.98C300.348 293.884 298.332 295.972 295.236 295.972C293.58 295.972 292.308 295.372 291.372 294.172C290.436 292.996 289.956 291.508 289.956 289.732ZM292.044 290.356C292.044 292.468 293.34 294.148 295.332 294.148C297.156 294.148 298.356 292.9 298.356 291.076C298.356 289.276 297.156 288.076 295.428 288.076C294.132 288.076 292.908 288.676 292.164 289.348C292.092 289.636 292.044 289.972 292.044 290.356ZM305.163 295.612H307.107V283.9L302.307 285.484L302.379 287.284L305.163 286.396V295.612ZM311.745 292.9C312.177 292.9 312.537 293.044 312.825 293.332C313.113 293.644 313.257 294.004 313.257 294.412C313.257 294.82 313.113 295.18 312.825 295.492C312.537 295.804 312.177 295.972 311.745 295.972C311.289 295.972 310.929 295.804 310.641 295.492C310.329 295.18 310.185 294.82 310.185 294.412C310.185 294.004 310.329 293.644 310.641 293.332C310.929 293.044 311.289 292.9 311.745 292.9ZM317.12 290.452C317.912 290.38 318.488 290.332 318.824 290.332C321.968 290.332 323.984 292.132 323.984 294.94C323.984 296.452 323.48 297.7 322.472 298.66C321.44 299.62 320.192 300.1 318.704 300.1C317.096 300.1 315.704 299.764 314.528 299.068L314.888 297.124C316.208 297.868 317.504 298.228 318.728 298.228C320.624 298.228 321.968 296.956 321.968 295.036C321.968 293.356 320.672 292.036 318.584 292.036C317.528 292.036 316.544 292.18 315.632 292.444L315.104 291.964L316.088 284.26H323.576L323.648 286.204H317.696L317.12 290.452ZM332.689 284.044C332.689 286.252 331.129 288.004 328.705 288.004C326.329 288.004 324.721 286.252 324.721 284.044C324.721 282.916 325.081 281.98 325.825 281.188C326.545 280.42 327.505 280.036 328.705 280.036C329.905 280.036 330.865 280.42 331.609 281.188C332.329 281.956 332.689 282.916 332.689 284.044ZM340.009 280.276L328.057 295.972H326.545L338.497 280.276H340.009ZM341.809 292.204C341.809 293.332 341.449 294.268 340.729 295.036C339.985 295.828 339.025 296.212 337.825 296.212C336.625 296.212 335.665 295.828 334.945 295.06C334.201 294.292 333.841 293.332 333.841 292.204C333.841 289.996 335.425 288.244 337.825 288.244C340.201 288.244 341.809 289.996 341.809 292.204ZM331.393 284.044C331.393 283.252 331.153 282.604 330.673 282.076C330.169 281.548 329.521 281.284 328.705 281.284C327.889 281.284 327.241 281.548 326.761 282.076C326.257 282.604 326.017 283.252 326.017 284.044C326.017 284.788 326.257 285.436 326.761 285.964C327.241 286.492 327.889 286.756 328.705 286.756C329.521 286.756 330.169 286.492 330.673 285.964C331.153 285.436 331.393 284.788 331.393 284.044ZM340.513 292.204C340.513 291.46 340.273 290.812 339.793 290.284C339.289 289.756 338.641 289.492 337.825 289.492C337.009 289.492 336.361 289.756 335.881 290.284C335.377 290.812 335.137 291.46 335.137 292.204C335.137 292.996 335.377 293.644 335.881 294.172C336.361 294.7 337.009 294.964 337.825 294.964C338.641 294.964 339.289 294.7 339.793 294.172C340.273 293.644 340.513 292.996 340.513 292.204Z" fill="#FBFBFB"/>
<path d="M6.48 50.92C8.76 51.28 10.008 52.888 10.008 54.712C10.008 56.176 9.48 57.352 8.448 58.192C7.392 59.056 6.072 59.488 4.488 59.488C2.784 59.488 1.416 59.176 0.432 58.576L0.792 56.728C1.728 57.376 2.976 57.688 4.512 57.688C6.6 57.688 7.944 56.68 7.944 54.856C7.944 53.248 6.672 52.408 4.68 52.336C4.08 52.312 3.336 52.384 2.472 52.528V50.824C5.712 50.08 7.32 48.928 7.32 47.392C7.32 45.952 6.336 45.16 4.608 45.16C3.552 45.16 2.4 45.616 1.152 46.552L0.456 44.872C1.776 43.84 3.24 43.312 4.824 43.312C7.728 43.312 9.48 44.848 9.48 47.104C9.48 48.808 8.184 50.248 6.48 50.92ZM17.3406 46.888C18.6846 46.336 19.3566 45.424 19.3566 44.176C19.3566 42.64 18.2046 41.656 16.6206 41.656C14.8206 41.656 13.7646 42.616 13.7646 43.936C13.7646 44.224 13.8366 44.488 13.9806 44.752C14.1246 45.016 14.2926 45.208 14.4606 45.376C14.6286 45.544 14.9166 45.736 15.3246 45.952C15.7086 46.168 16.0206 46.312 16.2366 46.408C16.4526 46.528 16.8366 46.672 17.3406 46.888ZM15.9006 48.232C14.4126 48.712 13.5246 49.744 13.5246 51.088C13.5246 52.6 14.8206 53.608 16.6446 53.608C18.5406 53.608 19.5726 52.792 19.5726 51.352C19.5726 51.088 19.5246 50.848 19.4526 50.632C19.3806 50.416 19.2366 50.2 19.0206 49.984C18.8046 49.768 18.6126 49.6 18.4686 49.48C18.3246 49.36 18.0606 49.216 17.6526 49.024C17.2446 48.832 16.9806 48.712 16.8606 48.64C16.7166 48.568 16.4046 48.448 15.9006 48.232ZM18.8286 47.56C20.6766 48.496 21.5886 49.672 21.5886 51.112C21.5886 53.512 19.7406 55.36 16.5486 55.36C13.3086 55.36 11.5326 53.656 11.5326 51.304C11.5326 49.504 12.9726 47.968 14.4126 47.584C12.7326 46.72 11.7726 45.76 11.7726 44.152C11.7726 41.632 13.6686 39.904 16.7166 39.904C19.7406 39.904 21.3486 41.68 21.3486 43.96C21.3486 45.64 20.1726 47.008 18.8286 47.56ZM25.2114 52.288C25.6434 52.288 26.0034 52.432 26.2914 52.72C26.5794 53.032 26.7234 53.392 26.7234 53.8C26.7234 54.208 26.5794 54.568 26.2914 54.88C26.0034 55.192 25.6434 55.36 25.2114 55.36C24.7554 55.36 24.3954 55.192 24.1074 54.88C23.7954 54.568 23.6514 54.208 23.6514 53.8C23.6514 53.392 23.7954 53.032 24.1074 52.72C24.3954 52.432 24.7554 52.288 25.2114 52.288ZM30.5865 49.84C31.3785 49.768 31.9545 49.72 32.2905 49.72C35.4345 49.72 37.4505 51.52 37.4505 54.328C37.4505 55.84 36.9465 57.088 35.9385 58.048C34.9065 59.008 33.6585 59.488 32.1705 59.488C30.5625 59.488 29.1705 59.152 27.9945 58.456L28.3545 56.512C29.6745 57.256 30.9705 57.616 32.1945 57.616C34.0905 57.616 35.4345 56.344 35.4345 54.424C35.4345 52.744 34.1385 51.424 32.0505 51.424C30.9945 51.424 30.0105 51.568 29.0985 51.832L28.5705 51.352L29.5545 43.648H37.0425L37.1145 45.592H31.1625L30.5865 49.84ZM46.1556 43.432C46.1556 45.64 44.5956 47.392 42.1716 47.392C39.7956 47.392 38.1876 45.64 38.1876 43.432C38.1876 42.304 38.5476 41.368 39.2916 40.576C40.0116 39.808 40.9716 39.424 42.1716 39.424C43.3716 39.424 44.3316 39.808 45.0756 40.576C45.7956 41.344 46.1556 42.304 46.1556 43.432ZM53.4756 39.664L41.5236 55.36H40.0116L51.9636 39.664H53.4756ZM55.2756 51.592C55.2756 52.72 54.9156 53.656 54.1956 54.424C53.4516 55.216 52.4916 55.6 51.2916 55.6C50.0916 55.6 49.1316 55.216 48.4116 54.448C47.6676 53.68 47.3076 52.72 47.3076 51.592C47.3076 49.384 48.8916 47.632 51.2916 47.632C53.6676 47.632 55.2756 49.384 55.2756 51.592ZM44.8596 43.432C44.8596 42.64 44.6196 41.992 44.1396 41.464C43.6356 40.936 42.9876 40.672 42.1716 40.672C41.3556 40.672 40.7076 40.936 40.2276 41.464C39.7236 41.992 39.4836 42.64 39.4836 43.432C39.4836 44.176 39.7236 44.824 40.2276 45.352C40.7076 45.88 41.3556 46.144 42.1716 46.144C42.9876 46.144 43.6356 45.88 44.1396 45.352C44.6196 44.824 44.8596 44.176 44.8596 43.432ZM53.9796 51.592C53.9796 50.848 53.7396 50.2 53.2596 49.672C52.7556 49.144 52.1076 48.88 51.2916 48.88C50.4756 48.88 49.8276 49.144 49.3476 49.672C48.8436 50.2 48.6036 50.848 48.6036 51.592C48.6036 52.384 48.8436 53.032 49.3476 53.56C49.8276 54.088 50.4756 54.352 51.2916 54.352C52.1076 54.352 52.7556 54.088 53.2596 53.56C53.7396 53.032 53.9796 52.384 53.9796 51.592Z" fill="#FBFBFB"/>
<path d="M173.631 18C147.704 18 122.393 25.8958 101.065 40.6365C79.7367 55.3773 63.4036 76.2639 54.2393 100.517C45.075 124.769 43.5141 151.238 49.7643 176.399C56.0145 201.561 69.7794 224.223 89.227 241.368L173.631 145.631L173.631 18Z" fill="#EC8539" fill-opacity="0.2"/>
<path d="M173.631 18.0452C194.281 18.0452 214.622 23.0557 232.91 32.6466C251.197 42.2376 266.884 56.1226 278.625 73.11C290.366 90.0974 297.809 109.68 300.317 130.177C302.825 150.674 300.321 171.473 293.022 190.79C285.723 210.107 273.846 227.364 258.41 241.081C242.974 254.798 224.44 264.564 204.399 269.542C184.359 274.521 163.409 274.562 143.349 269.662C123.289 264.763 104.717 255.069 89.227 241.413L173.631 145.676L173.631 18.0452Z" fill="#EC8539"/>
</svg>

<svg fill="none" height="302" viewBox="0 0 358 302" width="358" xmlns="http://www.w3.org/2000/svg"><g fill="#fbfbfb"><path d="m292.909 264h1.464v-11.64l-4.32 1.584.072 1.368 2.784-1.056zm14.957-5.616c0 2.136-.72 4.128-2.136 5.928-1.44 1.824-3.504 3.048-6.216 3.672l-.432-1.392c3.96-.936 6.48-3.336 7.176-6.48l-.048-.024c-1.2 1.128-2.544 1.68-4.032 1.68-1.2 0-2.232-.408-3.072-1.2s-1.272-1.896-1.272-3.264c0-2.904 1.944-4.944 4.944-4.944 1.56 0 2.808.576 3.72 1.704.912 1.152 1.368 2.592 1.368 4.32zm-1.56-.312c0-2.472-1.392-4.344-3.6-4.344-2.064 0-3.36 1.416-3.36 3.504 0 1.968 1.32 3.216 3.12 3.216 1.416 0 2.664-.528 3.768-1.584.048-.24.072-.504.072-.792zm8.854.792v-1.392h-5.424v1.392zm10.371 5.136h-8.592v-1.368c2.52-1.896 4.08-3.12 4.656-3.648 1.224-1.104 1.824-2.088 1.824-2.976 0-1.32-.984-2.256-2.52-2.256-1.08 0-2.208.456-3.408 1.392l-.528-1.272c1.272-1.008 2.64-1.512 4.08-1.512 2.352 0 3.936 1.392 3.936 3.456 0 .288-.024.552-.072.816-.072.264-.168.552-.312.816s-.288.504-.408.72c-.144.216-.36.48-.648.744l-.672.696c-.168.168-.456.408-.84.72-.408.312-.696.552-.912.696-.216.168-.552.408-1.008.768-.48.36-.84.624-1.056.792h6.48zm3.37-4.992c.6-.168 1.272-.24 2.016-.24 3.024 0 4.992 1.848 4.992 4.56 0 1.488-.504 2.712-1.488 3.672-1.008.96-2.256 1.44-3.744 1.44-1.416 0-2.712-.336-3.84-.984l.288-1.464c1.248.696 2.448 1.032 3.6 1.032 2.16 0 3.672-1.44 3.672-3.624 0-1.896-1.416-3.336-3.624-3.336-.984 0-1.944.144-2.856.456l-.504-.48.96-7.392h7.128l.072 1.44h-5.976z"/><path d="m9.72 24h-8.592v-1.368c2.52-1.896 4.08-3.12 4.656-3.648 1.224-1.104 1.824-2.088 1.824-2.976 0-1.32-.984-2.256-2.52-2.256-1.08 0-2.208.456-3.408 1.392l-.528-1.272c1.272-1.008 2.64-1.512 4.08-1.512 2.352 0 3.936 1.392 3.936 3.456 0 .288-.024.552-.072.816-.072.264-.168.552-.312.816s-.288.504-.408.72c-.144.216-.36.48-.648.744l-.672.696c-.168.168-.456.408-.84.72-.408.312-.696.552-.912.696-.216.168-.552.408-1.008.768-.48.36-.84.624-1.056.792h6.48zm2.0235-5.712c0-2.136.72-4.128 2.16-5.952 1.44-1.8 3.504-3.024 6.192-3.648l.432 1.392c-3.96.936-6.48 3.336-7.176 6.48l.048.024c1.2-1.128 2.544-1.68 4.032-1.68 1.2 0 2.232.408 3.072 1.2s1.272 1.896 1.272 3.264c0 2.904-1.968 4.944-4.92 4.944-1.584 0-2.832-.576-3.744-1.728-.912-1.128-1.368-2.568-1.368-4.296zm1.56.312c0 1.2.336 2.232.984 3.072s1.512 1.272 2.616 1.272c2.064 0 3.36-1.416 3.36-3.504 0-1.968-1.32-3.216-3.12-3.216-1.416 0-2.664.528-3.768 1.584-.048.24-.072.504-.072.792zm15.6943.264v-1.392h-5.424v1.392zm3.2878.144c.6-.168 1.272-.24 2.016-.24 3.024 0 4.992 1.848 4.992 4.56 0 1.488-.504 2.712-1.488 3.672-1.008.96-2.256 1.44-3.744 1.44-1.416 0-2.712-.336-3.84-.984l.288-1.464c1.248.696 2.448 1.032 3.6 1.032 2.16 0 3.672-1.44 3.672-3.624 0-1.896-1.416-3.336-3.624-3.336-.984 0-1.944.144-2.856.456l-.504-.48.96-7.392h7.128l.072 1.44h-5.976zm14.4467-6.648c1.656 0 3.048.552 4.152 1.68s1.656 2.544 1.656 4.296-.552 3.168-1.656 4.296-2.496 1.68-4.152 1.68-3.024-.552-4.104-1.68c-1.104-1.128-1.656-2.544-1.656-4.296s.552-3.168 1.656-4.296c1.08-1.128 2.448-1.68 4.104-1.68zm0 10.536c1.272 0 2.304-.432 3.12-1.296.792-.864 1.2-1.944 1.2-3.264s-.408-2.4-1.2-3.264c-.816-.864-1.848-1.296-3.12-1.296-1.248 0-2.28.432-3.072 1.296s-1.2 1.944-1.2 3.264.408 2.4 1.2 3.264 1.824 1.296 3.072 1.296z"/><path d="m289.956 289.732c0-2.184.72-4.152 2.136-5.904 1.416-1.728 3.432-2.904 6.096-3.528l.6 1.872c-3.72.936-5.952 2.808-6.696 5.616l.048.024c1.08-.984 2.352-1.488 3.816-1.488 2.472 0 4.392 1.896 4.392 4.656 0 2.904-2.016 4.992-5.112 4.992-1.656 0-2.928-.6-3.864-1.8-.936-1.176-1.416-2.664-1.416-4.44zm2.088.624c0 2.112 1.296 3.792 3.288 3.792 1.824 0 3.024-1.248 3.024-3.072 0-1.8-1.2-3-2.928-3-1.296 0-2.52.6-3.264 1.272-.072.288-.12.624-.12 1.008zm13.119 5.256h1.944v-11.712l-4.8 1.584.072 1.8 2.784-.888zm6.582-2.712c.432 0 .792.144 1.08.432.288.312.432.672.432 1.08s-.144.768-.432 1.08-.648.48-1.08.48c-.456 0-.816-.168-1.104-.48-.312-.312-.456-.672-.456-1.08s.144-.768.456-1.08c.288-.288.648-.432 1.104-.432zm5.375-2.448c.792-.072 1.368-.12 1.704-.12 3.144 0 5.16 1.8 5.16 4.608 0 1.512-.504 2.76-1.512 3.72-1.032.96-2.28 1.44-3.768 1.44-1.608 0-3-.336-4.176-1.032l.36-1.944c1.32.744 2.616 1.104 3.84 1.104 1.896 0 3.24-1.272 3.24-3.192 0-1.68-1.296-3-3.384-3-1.056 0-2.04.144-2.952.408l-.528-.48.984-7.704h7.488l.072 1.944h-5.952zm15.569-6.408c0 2.208-1.56 3.96-3.984 3.96-2.376 0-3.984-1.752-3.984-3.96 0-1.128.36-2.064 1.104-2.856.72-.768 1.68-1.152 2.88-1.152s2.16.384 2.904 1.152c.72.768 1.08 1.728 1.08 2.856zm7.32-3.768-11.952 15.696h-1.512l11.952-15.696zm1.8 11.928c0 1.128-.36 2.064-1.08 2.832-.744.792-1.704 1.176-2.904 1.176s-2.16-.384-2.88-1.152c-.744-.768-1.104-1.728-1.104-2.856 0-2.208 1.584-3.96 3.984-3.96 2.376 0 3.984 1.752 3.984 3.96zm-10.416-8.16c0-.792-.24-1.44-.72-1.968-.504-.528-1.152-.792-1.968-.792s-1.464.264-1.944.792c-.504.528-.744 1.176-.744 1.968 0 .744.24 1.392.744 1.92.48.528 1.128.792 1.944.792s1.464-.264 1.968-.792c.48-.528.72-1.176.72-1.92zm9.12 8.16c0-.744-.24-1.392-.72-1.92-.504-.528-1.152-.792-1.968-.792s-1.464.264-1.944.792c-.504.528-.744 1.176-.744 1.92 0 .792.24 1.44.744 1.968.48.528 1.128.792 1.944.792s1.464-.264 1.968-.792c.48-.528.72-1.176.72-1.968z"/><path d="m6.48 50.92c2.28.36 3.528 1.968 3.528 3.792 0 1.464-.528 2.64-1.56 3.48-1.056.864-2.376 1.296-3.96 1.296-1.704 0-3.072-.312-4.056-.912l.36-1.848c.936.648 2.184.96 3.72.96 2.088 0 3.432-1.008 3.432-2.832 0-1.608-1.272-2.448-3.264-2.52-.6-.024-1.344.048-2.208.192v-1.704c3.24-.744 4.848-1.896 4.848-3.432 0-1.44-.984-2.232-2.712-2.232-1.056 0-2.208.456-3.456 1.392l-.696-1.68c1.32-1.032 2.784-1.56 4.368-1.56 2.904 0 4.656 1.536 4.656 3.792 0 1.704-1.296 3.144-3 3.816zm10.8606-4.032c1.344-.552 2.016-1.464 2.016-2.712 0-1.536-1.152-2.52-2.736-2.52-1.8 0-2.856.96-2.856 2.28 0 .288.072.552.216.816s.312.456.48.624.456.36.864.576c.384.216.696.36.912.456.216.12.6.264 1.104.48zm-1.44 1.344c-1.488.48-2.376 1.512-2.376 2.856 0 1.512 1.296 2.52 3.12 2.52 1.896 0 2.928-.816 2.928-2.256 0-.264-.048-.504-.12-.72s-.216-.432-.432-.648-.408-.384-.552-.504-.408-.264-.816-.456-.672-.312-.792-.384c-.144-.072-.456-.192-.96-.408zm2.928-.672c1.848.936 2.76 2.112 2.76 3.552 0 2.4-1.848 4.248-5.04 4.248-3.24 0-5.016-1.704-5.016-4.056 0-1.8 1.44-3.336 2.88-3.72-1.68-.864-2.64-1.824-2.64-3.432 0-2.52 1.896-4.248 4.944-4.248 3.024 0 4.632 1.776 4.632 4.056 0 1.68-1.176 3.048-2.52 3.6zm6.3828 4.728c.432 0 .792.144 1.08.432.288.312.432.672.432 1.08s-.144.768-.432 1.08-.648.48-1.08.48c-.456 0-.816-.168-1.104-.48-.312-.312-.456-.672-.456-1.08s.144-.768.456-1.08c.288-.288.648-.432 1.104-.432zm5.3751-2.448c.792-.072 1.368-.12 1.704-.12 3.144 0 5.16 1.8 5.16 4.608 0 1.512-.504 2.76-1.512 3.72-1.032.96-2.28 1.44-3.768 1.44-1.608 0-3-.336-4.176-1.032l.36-1.944c1.32.744 2.616 1.104 3.84 1.104 1.896 0 3.24-1.272 3.24-3.192 0-1.68-1.296-3-3.384-3-1.056 0-2.04.144-2.952.408l-.528-.48.984-7.704h7.488l.072 1.944h-5.952zm15.5691-6.408c0 2.208-1.56 3.96-3.984 3.96-2.376 0-3.984-1.752-3.984-3.96 0-1.128.36-2.064 1.104-2.856.72-.768 1.68-1.152 2.88-1.152s2.16.384 2.904 1.152c.72.768 1.08 1.728 1.08 2.856zm7.32-3.768-11.952 15.696h-1.512l11.952-15.696zm1.8 11.928c0 1.128-.36 2.064-1.08 2.832-.744.792-1.704 1.176-2.904 1.176s-2.16-.384-2.88-1.152c-.744-.768-1.104-1.728-1.104-2.856 0-2.208 1.584-3.96 3.984-3.96 2.376 0 3.984 1.752 3.984 3.96zm-10.416-8.16c0-.792-.24-1.44-.72-1.968-.504-.528-1.152-.792-1.968-.792s-1.464.264-1.944.792c-.504.528-.744 1.176-.744 1.968 0 .744.24 1.392.744 1.92.48.528 1.128.792 1.944.792s1.464-.264 1.968-.792c.48-.528.72-1.176.72-1.92zm9.12 8.16c0-.744-.24-1.392-.72-1.92-.504-.528-1.152-.792-1.968-.792s-1.464.264-1.944.792c-.504.528-.744 1.176-.744 1.92 0 .792.24 1.44.744 1.968.48.528 1.128.792 1.944.792s1.464-.264 1.968-.792c.48-.528.72-1.176.72-1.968z"/></g><path d="m173.631 18c-25.927 0-51.238 7.8958-72.566 22.6365-21.3283 14.7408-37.6614 35.6274-46.8257 59.8805-9.1643 24.252-10.7252 50.721-4.475 75.882 6.2502 25.162 20.0151 47.824 39.4627 64.969l84.404-95.737z" fill="#ec8539" fill-opacity=".2"/><path d="m173.631 18.0452c20.65 0 40.991 5.0105 59.279 14.6014 18.287 9.591 33.974 23.476 45.715 40.4634s19.184 36.57 21.692 57.067.004 41.296-7.295 60.613-19.176 36.574-34.612 50.291-33.97 23.483-54.011 28.461c-20.04 4.979-40.99 5.02-61.05.12-20.06-4.899-38.632-14.593-54.122-28.249l84.404-95.737z" fill="#ec8539"/></svg>
